X: 29
T: Credo \`a 5
N: Derived from Ort1009-Credo_a_5.krn
C: Marbrianus de Orto
%%abc-version 2.0
%%abcx-abcm2ps-target-version 5.9.1 (29 Sep 2008)
%%abc-creator hum2abc beta
%%abcx-conversion-date 2019/02/17 07:28:37
%%abc-edited-by Jesse Rodin
%%abc-edited-by Jesse Rodin (8/2012)
%%abcx-initial-encoding-date 2012/08/11/
%%humdrum-veritas 1471464265
%%humdrum-veritas-data 3064747125
%%linebreak <none>
%%barnumbers 0
L: 1/4
M: 2/1
Q: 1/2=120
V: 1 clef=treble
V: 2 clef=treble-8
V: 3 clef=treble-8
V: 4 clef=treble-8
V: 5 clef=bass
K: F
[V:1] z8 | 
[V:2] z8 | 
[V:3] z8 | 
[V:4] z8 | 
[V:5] D8 | 
[V:1] z8 | 
[V:2] z8 | 
[V:3] d8 | 
[V:4] z8 | 
[V:5] G,8 | 
[V:1] z8 | 
[V:2] z8 | 
[V:3] G8 | 
[V:4] d8 | 
[V:5] B,6B,2 | 
[V:1] z8 | 
[V:2] z8 | 
[V:3] d8 | 
[V:4] G4A2B2 | 
[V:5] B,2A,G,F,2G,2 | 
[V:1] z8 | 
[V:2] g8 | 
[V:3] c4B4 | 
[V:4] G4z4 | 
[V:5] _E,2C,2E,4 | 
[V:1] z8 | 
[V:2] c8 | 
[V:3] A8 | 
[V:4] z8 | 
[V:5] F,4z4 | 
[V:1] z8 | 
[V:2] g8 | 
[V:3] G8 | 
[V:4] B4c4 | 
[V:5] _E,8 | 
[V:1] A8 | 
[V:2] f4d4 | 
[V:3] z8 | 
[V:4] d4A4- | 
[V:5] D,8 | 
[V:1] c8 | 
[V:2] e8 | 
[V:3] z8 | 
[V:4] A4A3c | 
[V:5] A,,8 | 
[V:1] d8 | 
[V:2] f4d4 | 
[V:3] z8 | 
[V:4] B4A4 | 
[V:5] z4D,4 | 
[V:1] e4f4 | 
[V:2] g4f4 | 
[V:3] z8 | 
[V:4] c3BAGF2 | 
[V:5] C,4D,4 | 
[V:1] e4d4- | 
[V:2] z2g3fd2 | 
[V:3] z8 | 
[V:4] c4G4 | 
[V:5] C,4B,,4 | 
[V:1] d2^c=Bc4 | 
[V:2] e4e4 | 
[V:3] z8 | 
[V:4] A8 | 
[V:5] A,,8 | 
[V:1] d8 | 
[V:2] d4z2B2 | 
[V:3] z8 | 
[V:4] F3GA2G2- | 
[V:5] D,3E,F,2G,2 | 
[V:1] z8 | 
[V:2] c2c2d2c2- | 
[V:3] e4f4 | 
[V:4] G2G2A4 | 
[V:5] C,2E,2D,2F,2 | 
[V:1] z8 | 
[V:2] c2c4=B2 | 
[V:3] g4f4 | 
[V:4] z2G2A2F2 | 
[V:5] C,2E,2D,4 | 
[V:1] z8 | 
[V:2] c4z4 | 
[V:3] e8 | 
[V:4] G4A2G2 | 
[V:5] C,8 | 
[V:1] z8 | 
[V:2] z4G4 | 
[V:3] e4d4 | 
[V:4] c2c4=B2 | 
[V:5] z8 | 
[V:1] z8 | 
[V:2] A4G2A2 | 
[V:3] c8 | 
[V:4] c4z2F2 | 
[V:5] F,4E,2F,2 | 
[V:1] z8 | 
[V:2] B2c2A2a2- | 
[V:3] e4f4 | 
[V:4] G4FGAB | 
[V:5] E,2C,2D,4 | 
[V:1] z8 | 
[V:2] a2gfg4 | 
[V:3] e2d2d2^c2 | 
[V:4] c2A4G2 | 
[V:5] C,2D,2E,4 | 
[V:1] z8 | 
[V:2] f8 | 
[V:3] d8 | 
[V:4] A4d4 | 
[V:5] D,8 | 
[V:1] d8 | 
[V:2] B4z2d2 | 
[V:3] z8 | 
[V:4] dcBAG2F2 | 
[V:5] G,6D,2 | 
[V:1] G4F4 | 
[V:2] cBAGA4 | 
[V:3] z8 | 
[V:4] c4d4 | 
[V:5] E,4D,4 | 
[V:1] c4d4 | 
[V:2] e4d2f2- | 
[V:3] z8 | 
[V:4] c4B4 | 
[V:5] A,,2A,,2B,,4 | 
[V:1] c6B2 | 
[V:2] f2f2c4 | 
[V:3] z8 | 
[V:4] A4A3B | 
[V:5] F,8- | 
[V:1] A4G4 | 
[V:2] z2A2B2G2 | 
[V:3] z8 | 
[V:4] c2d4c2 | 
[V:5] F,4E,4 | 
[V:1] F4G4 | 
[V:2] A2B2c4 | 
[V:3] z8 | 
[V:4] d4e4 | 
[V:5] D,4C,4 | 
[V:1] A8 | 
[V:2] F6G2 | 
[V:3] z8 | 
[V:4] f2f4ed | 
[V:5] z4D,4 | 
[V:1] A4c4 | 
[V:2] A8 | 
[V:3] z8 | 
[V:4] c4z4 | 
[V:5] F,4F,4 | 
[V:1] d8 | 
[V:2] B8 | 
[V:3] z8 | 
[V:4] f8 | 
[V:5] B,,8 | 
[V:1] e8 | 
[V:2] G6A2 | 
[V:3] z8 | 
[V:4] e4c4 | 
[V:5] C,8 | 
[V:1] f6ed | 
[V:2] B8 | 
[V:3] z8 | 
[V:4] d8 | 
[V:5] B,,4B,4 | 
[V:1] c4f4 | 
[V:2] c4B2f2- | 
[V:3] z8 | 
[V:4] e4d4 | 
[V:5] A,4B,4 | 
[V:1] e4d4- | 
[V:2] fga4g2 | 
[V:3] z8 | 
[V:4] c4d4 | 
[V:5] z2A,2B,4 | 
[V:1] d4^c4 | 
[V:2] a8 | 
[V:3] z8 | 
[V:4] e8 | 
[V:5] A,8 | 
[V:1] d8 | 
[V:2] f6g2 | 
[V:3] z8 | 
[V:4] d3cB4 | 
[V:5] D,4D4 | 
[V:1] z8 | 
[V:2] a8 | 
[V:3] e4f4 | 
[V:4] A4c4 | 
[V:5] C3B,A,4 | 
[V:1] z8 | 
[V:2] d4e4 | 
[V:3] g8 | 
[V:4] B2d4^c2 | 
[V:5] G,3F,E,4 | 
[V:1] z8 | 
[V:2] f2d4c2 | 
[V:3] f4e4 | 
[V:4] d4z2A2 | 
[V:5] D,4A,4 | 
[V:1] z8 | 
[V:2] d2efg2f2- | 
[V:3] d8 | 
[V:4] B4G2A2 | 
[V:5] z2G,3F,D,2- | 
[V:1] d8 | 
[V:2] f2d3ef2 | 
[V:3] z8 | 
[V:4] B3cd2B2- | 
[V:5] D,2B,,3C,D,2 | 
[V:1] G8 | 
[V:2] g2e3fg2 | 
[V:3] z8 | 
[V:4] B2c3BAG | 
[V:5] _E,2C,3D,E,2 | 
[V:1] d8 | 
[V:2] a2b2g4 | 
[V:3] z8 | 
[V:4] F2G2z2d2 | 
[V:5] D,2G,3A,B,2 | 
[V:1] c4d4 | 
[V:2] a4d4 | 
[V:3] z8 | 
[V:4] e2f4d2 | 
[V:5] A,2F,2B,4 | 
[V:1] c4B4 | 
[V:2] a4g4 | 
[V:3] z8 | 
[V:4] e2f2d4- | 
[V:5] z2F,2G,4 | 
[V:1] A8 | 
[V:2] f6ed | 
[V:3] z8 | 
[V:4] d4z2A2 | 
[V:5] D,4F,4 | 
[V:1] z8 | 
[V:2] d2c2d4 | 
[V:3] G4F4 | 
[V:4] B2G2A2B2 | 
[V:5] E,4D,4 | 
[V:1] z8 | 
[V:2] z4g4 | 
[V:3] A4c4 | 
[V:4] c3BG4 | 
[V:5] z2F,2E,4 | 
[V:1] z8 | 
[V:2] f8 | 
[V:3] d6e2 | 
[V:4] A4B3c | 
[V:5] D,3C,B,,4- | 
[V:1] z8 | 
[V:2] b4a4- | 
[V:3] f6e2 | 
[V:4] d8 | 
[V:5] B,,4D,4- | 
[V:1] z8 | 
[V:2] a2g2g4- | 
[V:3] d4c4 | 
[V:4] z4G4 | 
[V:5] D,4_E,4 | 
[V:1] z8 | 
[V:2] g4^f4 | 
[V:3] d8 | 
[V:4] A8 | 
[V:5] D,8 | 
[V:1] d8- | 
[V:2] g4z2G2- | 
[V:3] z8 | 
[V:4] G3ABcd2- | 
[V:5] z2D3CB,2- | 
[V:1] d8 | 
[V:2] GABcd4 | 
[V:3] z8 | 
[V:4] d2cBA2G2 | 
[V:5] B,A,G,2D,2G,2- | 
[V:1] c4B4 | 
[V:2] e2f2d2g2- | 
[V:3] z8 | 
[V:4] A4G4 | 
[V:5] G,2F,2G,4 | 
[V:1] A4G4 | 
[V:2] g2f2g4 | 
[V:3] z8 | 
[V:4] d4B4 | 
[V:5] D,4E,4 | 
[V:1] c6B2 | 
[V:2] e4f4- | 
[V:3] z8 | 
[V:4] z2c2A3G | 
[V:5] C,4F,4- | 
[V:1] A2G2B4 | 
[V:2] f2g2d4- | 
[V:3] z8 | 
[V:4] c4B2AG | 
[V:5] F,2E,2G,4 | 
[V:1] A3GG4- | 
[V:2] d4c4 | 
[V:3] z8 | 
[V:4] F4G4 | 
[V:5] D,4E,4 | 
[V:1] G4^F4 | 
[V:2] d8 | 
[V:3] z8 | 
[V:4] A8 | 
[V:5] D,8 | 
[V:1] G8 | 
[V:2] z2d3efg | 
[V:3] z8 | 
[V:4] G4B4 | 
[V:5] z4G,4 | 
[V:1] z8 | 
[V:2] a2g4f2 | 
[V:3] d4c4 | 
[V:4] A2B2c4 | 
[V:5] F,2G,2A,4 | 
[V:1] z8 | 
[V:2] g3fedc2 | 
[V:3] d4e4 | 
[V:4] G4c4 | 
[V:5] B,4z2A,2- | 
[V:1] z8 | 
[V:2] z2c2d4 | 
[V:3] f8 | 
[V:4] F2c4=B2 | 
[V:5] A,G,F,E,D,4 | 
[V:1] z8 | 
[V:2] g4g4 | 
[V:3] e8 | 
[V:4] c4G4 | 
[V:5] C,4z2E,2 | 
[V:1] z8 | 
[V:2] f2d2z4 | 
[V:3] d8 | 
[V:4] A2B2G2g2- | 
[V:5] F,2G,3A,B,2 | 
[V:1] c4d4 | 
[V:2] z4G2B2 | 
[V:3] z8 | 
[V:4] g2^f2g4 | 
[V:5] A,4z2G,2 | 
[V:1] c4B4 | 
[V:2] c2A2d3e | 
[V:3] z8 | 
[V:4] e2f2z2B2 | 
[V:5] A,2F,2G,4 | 
[V:1] A8 | 
[V:2] f2d2f2c2 | 
[V:3] z8 | 
[V:4] F2A4GF | 
[V:5] z2F,2D,2F,2 | 
[V:1] G8 | 
[V:2] z2e2d2c2 | 
[V:3] z8 | 
[V:4] c4G4 | 
[V:5] C,4z2E,2 | 
[V:1] F4G2A2- | 
[V:2] d4z2c2 | 
[V:3] z8 | 
[V:4] B2A2G2F2- | 
[V:5] D,2F,2E,2F,2 | 
[V:1] A2GFG4 | 
[V:2] d4z2d2 | 
[V:3] z8 | 
[V:4] F2A2B4 | 
[V:5] D,4z4 | 
[V:1] A8 | 
[V:2] c2f4ed | 
[V:3] z8 | 
[V:4] A2c2d2c2- | 
[V:5] z2F,2D,2F,2- | 
[V:1] z8 | 
[V:2] c4e4 | 
[V:3] A4c4 | 
[V:4] c2F2G3A | 
[V:5] F,2E,D,C,4 | 
[V:1] z8 | 
[V:2] d2f4d2- | 
[V:3] d8 | 
[V:4] B3cdef2 | 
[V:5] B,,4z2D,2 | 
[V:1] z8 | 
[V:2] d2c2d2f2- | 
[V:3] G4A4 | 
[V:4] g4f2d2- | 
[V:5] _E,4D,4 | 
[V:1] z8 | 
[V:2] f2d2g4 | 
[V:3] B8 | 
[V:4] d2f2B2d2- | 
[V:5] z2D,2_E,2D,2- | 
[V:1] z8 | 
[V:2] f2g4^f2 | 
[V:3] A8 | 
[V:4] d2_e2d4 | 
[V:5] D,2C,2D,4 | 
[V:1] z8 | 
[V:2] g4z4 | 
[V:3] G8 | 
[V:4] d8 | 
[V:5] z2G,4A,2 | 
[V:1] d4c4 | 
[V:2] f3dfga2- | 
[V:3] z8 | 
[V:4] z8 | 
[V:5] B,4A,4 | 
[V:1] d4e4 | 
[V:2] a2g2z2a2- | 
[V:3] z8 | 
[V:4] z4c4 | 
[V:5] B,2B,2A,4 | 
[V:1] f8- | 
[V:2] a2f2d2a2- | 
[V:3] z8 | 
[V:4] d6c2 | 
[V:5] z2B,4A,2 | 
[V:1] f4e4 | 
[V:2] a2a4a2 | 
[V:3] z8 | 
[V:4] d4c2c2 | 
[V:5] F,2D,2A,4 | 
[V:1] d8 | 
[V:2] b2agf2g2 | 
[V:3] z8 | 
[V:4] G4z2B2 | 
[V:5] z2B,4A,G, | 
[V:1] z8 | 
[V:2] a2d2z4 | 
[V:3] d8 | 
[V:4] A2B2A4 | 
[V:5] F,2G,2D,4 | 
[V:1] z8 | 
[V:2] z2g4fe | 
[V:3] d4d4 | 
[V:4] G4G4 | 
[V:5] z4z2G,2- | 
[V:1] z8 | 
[V:2] d2g2f4 | 
[V:3] d8 | 
[V:4] B2AGA2B2- | 
[V:5] G,2F,E,D,2B,,2 | 
[V:1] z8 | 
[V:2] z2c4f2- | 
[V:3] G4A4 | 
[V:4] B2AGF4 | 
[V:5] _E,4z2D,2- | 
[V:1] z8 | 
[V:2] f2g3fed | 
[V:3] B8 | 
[V:4] z4G4 | 
[V:5] D,2C,2B,,4 | 
[V:1] z4c4 | 
[V:2] f2e3ce2 | 
[V:3] c8 | 
[V:4] A4G2A2 | 
[V:5] A,,3B,,C,2A,,2 | 
[V:1] d6c2 | 
[V:2] d2f3ga2 | 
[V:3] z8 | 
[V:4] F2B2A4 | 
[V:5] B,,3C,D,E,F,2 | 
[V:1] B4A4 | 
[V:2] d4f2ed | 
[V:3] z8 | 
[V:4] z2G2c4 | 
[V:5] G,4F,4 | 
[V:1] AGFED2A2- | 
[V:2] c2d2B2f2- | 
[V:3] z8 | 
[V:4] A4z2c2 | 
[V:5] z2D,2G,2F,2 | 
[V:1] ABc2B2A2- | 
[V:2] f2g3df2- | 
[V:3] z8 | 
[V:4] d2e2d3c | 
[V:5] D,2C,2G,2F,2 | 
[V:1] AGG4^F2 | 
[V:2] f2c2d2f2 | 
[V:3] z8 | 
[V:4] d2G2A4 | 
[V:5] D,2E,2D,4 | 
[V:1] G8 ||  
[V:2] e2d6 ||  
[V:3] G8 ||  
[V:4] G8 ||  
[V:5] G,8 ||  
[V:1]  [K:F] [K:clef=treble][M:2/1]z8 | 
[V:2]  [K:F] [K:clef=treble-8][M:2/1]z8 | 
[V:3]  [K:F] [K:clef=treble-8][M:2/1]z8 | 
[V:4]  [K:F] [K:clef=treble-8][M:2/1]d6cB | 
[V:5]  [K:F] [K:clef=bass][M:2/1]G,8 | 
[V:1] z8 | 
[V:2] z4d4- | 
[V:3] z8 | 
[V:4] A2A2B4 | 
[V:5] F,4G,4 | 
[V:1] z8 | 
[V:2] d4c4 | 
[V:3] z4g4 | 
[V:4] A4G4 | 
[V:5] F,4E,4 | 
[V:1] z8 | 
[V:2] d4c2B2 | 
[V:3] f4g4 | 
[V:4] A2B2G4 | 
[V:5] D,4E,4 | 
[V:1] z8 | 
[V:2] A2d4c2 | 
[V:3] f4e4 | 
[V:4] z4z2A2 | 
[V:5] z2D,2A,4 | 
[V:1] z8 | 
[V:2] d4f4 | 
[V:3] d4z4 | 
[V:4] B2d4c2 | 
[V:5] z2B,4A,2 | 
[V:1] z8 | 
[V:2] g4d4 | 
[V:3] d4f4 | 
[V:4] B2d4B2- | 
[V:5] G,2B,4B,,2 | 
[V:1] z8 | 
[V:2] z8 | 
[V:3] e4d4 | 
[V:4] B2A2B2d2- | 
[V:5] C,4B,,4 | 
[V:1] z8 | 
[V:2] d4d2d2 | 
[V:3] f8 | 
[V:4] d2cBA4 | 
[V:5] D,8 | 
[V:1] z8 | 
[V:2] e2d4c2 | 
[V:3] g8 | 
[V:4] G8 | 
[V:5] z4_E,4 | 
[V:1] f8 | 
[V:2] defga4 | 
[V:3] z8 | 
[V:4] A4z4 | 
[V:5] D,4F,3G, | 
[V:1] e4d4 | 
[V:2] a3gg4 | 
[V:3] z8 | 
[V:4] c4d4 | 
[V:5] A,4B,4 | 
[V:1] c8 | 
[V:2] a2g2e2f2 | 
[V:3] z8 | 
[V:4] f4c4 | 
[V:5] F,4A,4 | 
[V:1] B4d4 | 
[V:2] g8 | 
[V:3] z8 | 
[V:4] d8 | 
[V:5] G,8 | 
[V:1] c8- | 
[V:2] e4f2e2 | 
[V:3] z8 | 
[V:4] A4F2c2- | 
[V:5] A,8 | 
[V:1] c8 | 
[V:2] a8 | 
[V:3] f6c2 | 
[V:4] c2A2A4 | 
[V:5] F,8 | 
[V:1] d8 | 
[V:2] d8 | 
[V:3] g4f4 | 
[V:4] G3AB4 | 
[V:5] z4B,,4 | 
[V:1] c4d4 | 
[V:2] g4z2G2 | 
[V:3] e4d4 | 
[V:4] z2G4G2 | 
[V:5] C,4B,,4 | 
[V:1] c4B4 | 
[V:2] c4d4 | 
[V:3] e4d4- | 
[V:4] A4F4 | 
[V:5] A,,4B,,4 | 
[V:1] !fermata!A8- | 
[V:2] f8 | 
[V:3] d4d4 | 
[V:4] F8 | 
[V:5] D,8 | 
[V:1] A8- | 
[V:2] e6A2 | 
[V:3] !fermata!c8- | 
[V:4] z4A4 | 
[V:5] !fermata!A,,8- | 
[V:1] A8 ||  
[V:2] !fermata!A8 & !fermata!e8 ||  
[V:3] c8 ||  
[V:4] !fermata!E8 ||  
[V:5] A,,8 ||  
[V:1]  [K:F] [K:clef=treble][M:2/1]z8 | 
[V:2]  [K:F] [K:clef=treble-8][M:2/1]A8 | 
[V:3]  [K:F] [K:clef=treble-8][M:2/1]z8 | 
[V:4]  [K:F] [K:clef=treble-8][M:2/1]z8 | 
[V:5]  [K:F] [K:clef=bass][M:2/1]z8 | 
[V:1] z8 | 
[V:2] G4A4 | 
[V:3] z8 | 
[V:4] z8 | 
[V:5] C,8 | 
[V:1] z8 | 
[V:2] B4_e4 | 
[V:3] z8 | 
[V:4] G8 | 
[V:5] B,,4C,4 | 
[V:1] z4G4- | 
[V:2] d2d4c2 | 
[V:3] z8 | 
[V:4] F4G4 | 
[V:5] D,2F,2E,4 | 
[V:1] G4F4 | 
[V:2] d8 | 
[V:3] z8 | 
[V:4] A8 | 
[V:5] D,8 | 
[V:1] G8 | 
[V:2] d4c4 | 
[V:3] z8 | 
[V:4] G8 | 
[V:5] G,4E,4 | 
[V:1] A8 | 
[V:2] d4e4 | 
[V:3] z8 | 
[V:4] d4c4 | 
[V:5] D,4A,4 | 
[V:1] z8 | 
[V:2] z2f3ga2- | 
[V:3] d4c4 | 
[V:4] d4z4 | 
[V:5] B,4A,4 | 
[V:1] z8 | 
[V:2] a2g2a4 | 
[V:3] d4e4 | 
[V:4] z4c4 | 
[V:5] B,4A,4 | 
[V:1] z8 | 
[V:2] z2b4a2- | 
[V:3] f8 | 
[V:4] d8 | 
[V:5] z8 | 
[V:1] z8 | 
[V:2] a2g4a2- | 
[V:3] e8 | 
[V:4] c4z2c2- | 
[V:5] A,2C3B,A,G, | 
[V:1] z8 | 
[V:2] a2g4^f2 | 
[V:3] d8 | 
[V:4] c2B2A4 | 
[V:5] F,2G,2D,4 | 
[V:1] d8 | 
[V:2] g4z2f2 | 
[V:3] z8 | 
[V:4] G3ABcd2 | 
[V:5] z2G,3F,D,2 | 
[V:1] G4A4 | 
[V:2] gfedc2f2 | 
[V:3] z8 | 
[V:4] B2c2A2d2 | 
[V:5] E,2C,2F,2D,2 | 
[V:1] B4c4 | 
[V:2] d2g3f_e2- | 
[V:3] z8 | 
[V:4] B2_e3dc2 | 
[V:5] G,4C,4 | 
[V:1] B3AG4 | 
[V:2] e2d4c2 | 
[V:3] z8 | 
[V:4] G3AB2G2 | 
[V:5] _E,8 | 
[V:1] F8 | 
[V:2] d8 | 
[V:3] z8 | 
[V:4] A4z4 | 
[V:5] D,8 | 
[V:1] B4A4 | 
[V:2] z2f4d2- | 
[V:3] z8 | 
[V:4] d4c2A2 | 
[V:5] B,,4F,4 | 
[V:1] B4G4 | 
[V:2] d2e4c2- | 
[V:3] z8 | 
[V:4] G2B2c4 | 
[V:5] G,4C,4 | 
[V:1] A4F4 | 
[V:2] c2d4B2- | 
[V:3] z8 | 
[V:4] A4d4 | 
[V:5] F,4D,4 | 
[V:1] G8 | 
[V:2] B2c4B2- | 
[V:3] z8 | 
[V:4] G2g3fe2- | 
[V:5] E,4C,2G,2- | 
[V:1] z8 | 
[V:2] BAGFG4 | 
[V:3] g8 | 
[V:4] ed^c=B^c4 | 
[V:5] G,F,E,D,E,4 | 
[V:1] z8 | 
[V:2] A4z4 | 
[V:3] f4d4 | 
[V:4] d3cB2A2 | 
[V:5] D,8 | 
[V:1] z8 | 
[V:2] z4d4 | 
[V:3] f8 | 
[V:4] d2cBA4 | 
[V:5] D,8 | 
[V:1] z8 | 
[V:2] B4c2B2- | 
[V:3] g8 | 
[V:4] G8- | 
[V:5] D4_E2D2- | 
[V:1] z8 | 
[V:2] B2_e2d3=e | 
[V:3] g8 | 
[V:4] G4z4 | 
[V:5] D2C2B,2A,G, | 
[V:1] z8 | 
[V:2] f4z2_e2- | 
[V:3] a4g4- | 
[V:4] c2d2B2c2- | 
[V:5] F,2D,2_E,2C,2- | 
[V:1] z8 | 
[V:2] e2c2d4 | 
[V:3] g4f4 | 
[V:4] cBG2A2B2 | 
[V:5] C,2_E,2D,2B,,2 | 
[V:1] z8 | 
[V:2] z2c4A2 | 
[V:3] e8 | 
[V:4] G2A3GE2 | 
[V:5] C,2A,,4C,2 | 
[V:1] z8 | 
[V:2] B4f3g | 
[V:3] d8 | 
[V:4] F4D4 | 
[V:5] B,,2D,3E,F,2- | 
[V:1] c4d4 | 
[V:2] a2f4g2 | 
[V:3] z8 | 
[V:4] z2F2D2G2- | 
[V:5] F,G,A,2B,2G,2 | 
[V:1] c4B4 | 
[V:2] e2f2d2g2- | 
[V:3] z8 | 
[V:4] G2F2G2d2- | 
[V:5] A,4G,4 | 
[V:1] A8 | 
[V:2] g2feg2^f2 | 
[V:3] z8 | 
[V:4] d2cBd4 | 
[V:5] D,8 | 
[V:1] G8 | 
[V:2] g4z4 | 
[V:3] z8 | 
[V:4] z4G3A | 
[V:5] z2G,3F,_E,2- | 
[V:1] z8 | 
[V:2] z8 | 
[V:3] G4A4 | 
[V:4] B2c4d2- | 
[V:5] E,2C,2F,4 | 
[V:1] z8 | 
[V:2] z8 | 
[V:3] B4c4 | 
[V:4] d2_e4c2- | 
[V:5] G,4C,4 | 
[V:1] z8 | 
[V:2] z2d2e3f | 
[V:3] d4z2c2- | 
[V:4] c2=B2c4 | 
[V:5] G,4C,4 | 
[V:1] z8 | 
[V:2] e2d2e4 | 
[V:3] c2B2c4 | 
[V:4] z8 | 
[V:5] G,4z2A,2 | 
[V:1] z4z2d2 | 
[V:2] d3ef2g2- | 
[V:3] d4z4 | 
[V:4] G2B4G2 | 
[V:5] B,4z4 | 
[V:1] e2f2e2d2 | 
[V:2] gfd2c2d2- | 
[V:3] z8 | 
[V:4] c2B2c2B2 | 
[V:5] z8 | 
[V:1] e4c3d | 
[V:2] d2c2f2e2 | 
[V:3] z8 | 
[V:4] A4z4 | 
[V:5] A,3G,A,B,C2- | 
[V:1] e2f2d2e2- | 
[V:2] g2a2g4- | 
[V:3] z8 | 
[V:4] c2A2B2c2- | 
[V:5] C2F,2G,2C,2- | 
[V:1] edd4^c2 | 
[V:2] g2f2e4 | 
[V:3] z8 | 
[V:4] c2A4A2 | 
[V:5] C,2D,2A,,4 | 
[V:1] d8 | 
[V:2] d2g2f3e | 
[V:3] z8 | 
[V:4] B4B3A | 
[V:5] z8 | 
[V:1] z8 | 
[V:2] d2c2B2c2 | 
[V:3] g8 | 
[V:4] B2c2G4 | 
[V:5] z2C,2E,4 | 
[V:1] z8 | 
[V:2] d4z2c2 | 
[V:3] f4e4 | 
[V:4] A3Bc2A2 | 
[V:5] D,4z4 | 
[V:1] z8 | 
[V:2] d4e4 | 
[V:3] d4c4 | 
[V:4] B4G4 | 
[V:5] z4C,4 | 
[V:1] z8 | 
[V:2] d4g4 | 
[V:3] B4c4 | 
[V:4] z2F2G3A | 
[V:5] D,4E,4 | 
[V:1] z4c4 | 
[V:2] f4g4 | 
[V:3] d4z4 | 
[V:4] Bcd2_e2_e2 | 
[V:5] D,4z4 | 
[V:1] d4e4 | 
[V:2] f4z2c2 | 
[V:3] z8 | 
[V:4] d2B4A2 | 
[V:5] B,,4C,4 | 
[V:1] d8 | 
[V:2] f3ga2d2 | 
[V:3] z8 | 
[V:4] B4A2B2 | 
[V:5] B,,C,D,E,F,2G,2- | 
[V:1] z8 | 
[V:2] g3fg2a2 | 
[V:3] d4c4 | 
[V:4] G4z4 | 
[V:5] G,A,B,4A,2 | 
[V:1] z8 | 
[V:2] f2b4ag | 
[V:3] d6cB | 
[V:4] B3cdef2- | 
[V:5] B,4B,,3C, | 
[V:1] z8 | 
[V:2] f2g4^f2 | 
[V:3] A8 | 
[V:4] f2e2d4- | 
[V:5] D,2C,2D,4 | 
[V:1] G8 | 
[V:2] g4G4 | 
[V:3] z8 | 
[V:4] d2cBc4 | 
[V:5] _E,8 | 
[V:1] F8 | 
[V:2] A2B2A2d2 | 
[V:3] z8 | 
[V:4] d4f3e | 
[V:5] D,4z2D,2- | 
[V:1] A4c4- | 
[V:2] f4z2e2 | 
[V:3] z8 | 
[V:4] d2c4c2 | 
[V:5] D,2F,3E,C,2 | 
[V:1] c4d4 | 
[V:2] c2f4d2 | 
[V:3] z8 | 
[V:4] A4B4 | 
[V:5] F,4B,,4 | 
[V:1] c8 | 
[V:2] a2gfe2f2- | 
[V:3] z8 | 
[V:4] A8 | 
[V:5] z8 | 
[V:1] d8 | 
[V:2] f2g2a2d2- | 
[V:3] z8 | 
[V:4] z8 | 
[V:5] B,2A,G,F,2G,2- | 
[V:1] z8 | 
[V:2] d2g4^f2 | 
[V:3] d4c4 | 
[V:4] z8 | 
[V:5] G,2B,2A,4 | 
[V:1] z8 | 
[V:2] g4z2c2 | 
[V:3] d4e4 | 
[V:4] d4c4 | 
[V:5] G,2B,2A,4 | 
[V:1] A4G4 | 
[V:2] A2d4c2 | 
[V:3] f4e4 | 
[V:4] d4e4 | 
[V:5] D,4z4 | 
[V:1] A4B4 | 
[V:2] d4B4 | 
[V:3] d4g4- | 
[V:4] f4d4 | 
[V:5] z4G,4 | 
[V:1] c6B2 | 
[V:2] z2A2G2B2 | 
[V:3] g2f2e2d2 | 
[V:4] e2c4d2- | 
[V:5] C,2F,2C,2G,2 | 
[V:1] A2G2B4 | 
[V:2] c2g3fd2 | 
[V:3] f2e2d4- | 
[V:4] d2c2d4 | 
[V:5] F,2C,2G,4 | 
[V:1] A3GG4- | 
[V:2] f4g4 | 
[V:3] d2c2c4 | 
[V:4] z4G4 | 
[V:5] F,4E,4 | 
[V:1] G4^F4 | 
[V:2] z4d4- | 
[V:3] d8- | 
[V:4] A8 | 
[V:5] D,8 | 
[V:1] G8 ||  
[V:2] d4B4 ||  
[V:3] d8 ||  
[V:4] G8 ||  
[V:5] G,8 ||  
[V:1]  [K:F] [K:clef=treble][M:2/1]z8 | 
[V:2]  [K:F] [K:clef=treble-8][M:2/1]g8 | 
[V:3]  [K:F] [K:clef=treble-8][M:2/1]z8 | 
[V:4]  [K:F] [K:clef=treble-8][M:2/1]z8 | 
[V:5]  [K:F] [K:clef=bass][M:2/1]z8 | 
[V:1] z8 | 
[V:2] d8 | 
[V:3] z8 | 
[V:4] d8 | 
[V:5] z8 | 
[V:1] z8 | 
[V:2] d4e4 | 
[V:3] z8 | 
[V:4] G8 | 
[V:5] G,8 | 
[V:1] d8 | 
[V:2] f8 | 
[V:3] z8 | 
[V:4] A4B4 | 
[V:5] D,8 | 
[V:1] G8 | 
[V:2] e4z2g2- | 
[V:3] z8 | 
[V:4] c8 | 
[V:5] C,4C,4 | 
[V:1] A4B4 | 
[V:2] g2f2d3e | 
[V:3] z8 | 
[V:4] c4B4 | 
[V:5] F,4G,4 | 
[V:1] c8 | 
[V:2] f4a4 | 
[V:3] z8 | 
[V:4] A2F2f4 | 
[V:5] F,4F,2F,2 | 
[V:1] c8 | 
[V:2] g2f2e4 | 
[V:3] z8 | 
[V:4] e2d2c2A2 | 
[V:5] C,2F,2G,2A,2 | 
[V:1] d8 | 
[V:2] z2f4g2 | 
[V:3] z8 | 
[V:4] G2B3AG2- | 
[V:5] B,2D3CB,2 | 
[V:1] c4B4 | 
[V:2] a4d2g2- | 
[V:3] z8 | 
[V:4] G2^F2G4 | 
[V:5] A,4G,4 | 
[V:1] A8 | 
[V:2] g2fefedc | 
[V:3] z8 | 
[V:4] d8 | 
[V:5] D,8 | 
[V:1] z8 | 
[V:2] B3cd4 | 
[V:3] G8 | 
[V:4] d4z2d2 | 
[V:5] z4B,,4 | 
[V:1] z8 | 
[V:2] c2A2c2F2- | 
[V:3] A8 | 
[V:4] e2f2e2d2 | 
[V:5] A,,2D,2C,2D,2- | 
[V:1] z8 | 
[V:2] F2f3edc | 
[V:3] B4c4 | 
[V:4] f2F3GA2 | 
[V:5] D,2B,,2F,4 | 
[V:1] z8 | 
[V:2] e2d4^c2 | 
[V:3] B3AG4 | 
[V:4] z2G2B2G2 | 
[V:5] G,4E,4 | 
[V:1] z8 | 
[V:2] d4c2f2 | 
[V:3] F8 | 
[V:4] A2B2A4 | 
[V:5] D,4z2D,2 | 
[V:1] G4A4 | 
[V:2] e2d4f2- | 
[V:3] z8 | 
[V:4] G2B2A2d2- | 
[V:5] E,2G,2F,2D,2- | 
[V:1] B8 | 
[V:2] f2g3fd2 | 
[V:3] z8 | 
[V:4] dcBAG2B2 | 
[V:5] D,2_E,3D,B,,2 | 
[V:1] A8 | 
[V:2] c2f3ec2 | 
[V:3] z8 | 
[V:4] F4z2f2 | 
[V:5] C,2D,3E,F,2 | 
[V:1] B4G4 | 
[V:2] z2g3fed | 
[V:3] z8 | 
[V:4] d2_e3fg2 | 
[V:5] G,2_E,4C,2 | 
[V:1] A4B4 | 
[V:2] c2fedcB2 | 
[V:3] z8 | 
[V:4] f4B2d2- | 
[V:5] F,2D,2G,4 | 
[V:1] A4G4 | 
[V:2] d2c2e2c2 | 
[V:3] z8 | 
[V:4] d2A2cBAG | 
[V:5] D,2F,2C,2_E,2 | 
[V:1] F8 | 
[V:2] d8 | 
[V:3] z8 | 
[V:4] A2B2A4 | 
[V:5] D,3C,D,4 | 
[V:1] [M:3/1]G12 | 
[V:2] [M:3/1]B4B4c4 | 
[V:3] [M:3/1]z12 | 
[V:4] [M:3/1]G8A4 | 
[V:5] [M:3/1]_E,4E,4C,4 | 
[V:1] z12 | 
[V:2] d4f4f4 | 
[V:3] d8B4 | 
[V:4] B4A4F4 | 
[V:5] B,,4D,8 | 
[V:1] z12 | 
[V:2] e4d4z4 | 
[V:3] c4d4e4 | 
[V:4] G8G4 | 
[V:5] C,4B,,4C,4 | 
[V:1] z12 | 
[V:2] z4d4c4 | 
[V:3] f8e4 | 
[V:4] B4A8 | 
[V:5] B,,4D,4A,,4 | 
[V:1] z12 | 
[V:2] d6e2f4- | 
[V:3] d12 | 
[V:4] A4B4A4 | 
[V:5] D,4G,4F,4 | 
[V:1] d4c4d4 | 
[V:2] f4e4d4 | 
[V:3] z12 | 
[V:4] z12 | 
[V:5] D,4A,4B,4 | 
[V:1] e4f8 | 
[V:2] g4f4d4 | 
[V:3] z12 | 
[V:4] z12 | 
[V:5] C4D6C2 | 
[V:1] d12 | 
[V:2] g6f2e2d2 | 
[V:3] z12 | 
[V:4] G4B8 | 
[V:5] B,2A,2G,6F,2 | 
[V:1] z12 | 
[V:2] c2B2_e4d4 | 
[V:3] g8f4 | 
[V:4] G4c4A4 | 
[V:5] E,2D,2C,4D,4 | 
[V:1] z12 | 
[V:2] g6d2e4 | 
[V:3] e4d4c4 | 
[V:4] z2G4B2A2G2 | 
[V:5] C,4B,,4C,4 | 
[V:1] z12 | 
[V:2] f8e4 | 
[V:3] B4c8 | 
[V:4] F4G8 | 
[V:5] D,4C,8 | 
[V:1] z12 | 
[V:2] f4e4d4 | 
[V:3] A12 | 
[V:4] F4A8 | 
[V:5] D,4C,4D,4 | 
[V:1] G4F4G4 | 
[V:2] c4d4e4 | 
[V:3] z12 | 
[V:4] G4A4B4 | 
[V:5] E,4D,4G,4 | 
[V:1] A4c8 | 
[V:2] f8e4 | 
[V:3] z12 | 
[V:4] c8A4 | 
[V:5] F,6E,D,C,4 | 
[V:1] d8G4- | 
[V:2] d4f4e4 | 
[V:3] z12 | 
[V:4] B4d4c4 | 
[V:5] B,,8C,4 | 
[V:1] G4A8 | 
[V:2] c4f8 | 
[V:3] z12 | 
[V:4] G4d4c4 | 
[V:5] _E,4D,4F,4 | 
[V:1] B4A6G2 | 
[V:2] d4f8 | 
[V:3] z12 | 
[V:4] B4d4c4- | 
[V:5] G,4D,4F,4 | 
[V:1] G8^F4 | 
[V:2] e4d8 | 
[V:3] z12 | 
[V:4] c4A8 | 
[V:5] C,4D,8 | 
[V:1] G8 | 
[V:2] d4z4 | 
[V:3] z8 | 
[V:4] z4G3A | 
[V:5] G,4z4 | 
[V:1] z8 | 
[V:2] z8 | 
[V:3] g8 | 
[V:4] B2c3Bc2 | 
[V:5] z8 | 
[V:1] z8 | 
[V:2] z8 | 
[V:3] g8 | 
[V:4] G2c3de2- | 
[V:5] z8 | 
[V:1] z8 | 
[V:2] z8 | 
[V:3] f4e4 | 
[V:4] e2d4^c2 | 
[V:5] z8 | 
[V:1] z8 | 
[V:2] z8 | 
[V:3] f4d4 | 
[V:4] d4z4 | 
[V:5] D,3E,F,2G,2- | 
[V:1] z8 | 
[V:2] z8 | 
[V:3] e8- | 
[V:4] z8 | 
[V:5] G,2C,4C2- | 
[V:1] z8 | 
[V:2] z4c3d | 
[V:3] e4f4 | 
[V:4] z8 | 
[V:5] CB,A,G,A,4 | 
[V:1] z4d4 | 
[V:2] _e2d4B2- | 
[V:3] g4z4 | 
[V:4] z8 | 
[V:5] G,4z4 | 
[V:1] f4e4 | 
[V:2] Bcd2c2g2- | 
[V:3] z8 | 
[V:4] z8 | 
[V:5] z8 | 
[V:1] d4c4 | 
[V:2] gf_ed_e4 | 
[V:3] z8 | 
[V:4] z4A4 | 
[V:5] z8 | 
[V:1] d4c4 | 
[V:2] d4z4 | 
[V:3] z8 | 
[V:4] Bcdef2_e2- | 
[V:5] z8 | 
[V:1] B4A4 | 
[V:2] z8 | 
[V:3] z8 | 
[V:4] edcBc4 | 
[V:5] z4F,4 | 
[V:1] B8 | 
[V:2] z8 | 
[V:3] z8 | 
[V:4] B3cd2G2 | 
[V:5] G,3F,D,2_E,2- | 
[V:1] z8 | 
[V:2] z8 | 
[V:3] c8 | 
[V:4] cBAGF4 | 
[V:5] E,D,C,B,,A,,4 | 
[V:1] z8 | 
[V:2] G3ABcd2- | 
[V:3] d6d2 | 
[V:4] B3cdef2- | 
[V:5] z4z2B,,2- | 
[V:1] z8 | 
[V:2] def2_e4 | 
[V:3] d4G4 | 
[V:4] f2F2c2BA | 
[V:5] B,,C,D,2C,2_E,2- | 
[V:1] z8 | 
[V:2] z2d2e2f2- | 
[V:3] B4c4 | 
[V:4] G4A4 | 
[V:5] E,F,G,4F,2 | 
[V:1] z8 | 
[V:2] f2ede4 | 
[V:3] B3AG4 | 
[V:4] z2G2c4 | 
[V:5] G,4C,4 | 
[V:1] z8 | 
[V:2] f4z4 | 
[V:3] F8 | 
[V:4] A4z2B2- | 
[V:5] D,8 | 
[V:1] G4F4 | 
[V:2] z4d4 | 
[V:3] z8 | 
[V:4] B2c4B2 | 
[V:5] E,4D,4 | 
[V:1] G4A4 | 
[V:2] _e4c4 | 
[V:3] z8 | 
[V:4] c4A4- | 
[V:5] C,4F,4- | 
[V:1] c8 | 
[V:2] f4_e4- | 
[V:3] z8 | 
[V:4] A2F2G2c2- | 
[V:5] F,2E,D,C,4 | 
[V:1] B8 | 
[V:2] e4d4- | 
[V:3] z8 | 
[V:4] cBG2B4 | 
[V:5] _E,4G,4 | 
[V:1] A4B4 | 
[V:2] d2c2g4 | 
[V:3] z8 | 
[V:4] z2c2_e2d2- | 
[V:5] F,4_E,2G,2 | 
[V:1] A4G4 | 
[V:2] f4d2_e2 | 
[V:3] z8 | 
[V:4] d2c2B2c2 | 
[V:5] D,2F,2G,2C,2 | 
[V:1] F8 | 
[V:2] d4d4 | 
[V:3] z8 | 
[V:4] A3GA4 | 
[V:5] D,4D,4 | 
[V:1] G4z4 | 
[V:2] B2c4d2- | 
[V:3] z8 | 
[V:4] G4A4 | 
[V:5] E,4F,4 | 
[V:1] z8 | 
[V:2] d2cBA4- | 
[V:3] d4e4 | 
[V:4] B4c4 | 
[V:5] G,4z4 | 
[V:1] z8 | 
[V:2] A2d2B2_e2 | 
[V:3] f4g4 | 
[V:4] d4z2B2- | 
[V:5] D,4_E,3F, | 
[V:1] z8 | 
[V:2] d2f2d2f2 | 
[V:3] g2a2g2f2 | 
[V:4] B2c2G2d2- | 
[V:5] G,2F,2B,4 | 
[V:1] z8 | 
[V:2] g2a4g2 | 
[V:3] e4d4 | 
[V:4] d2c2d4 | 
[V:5] z2A,2B,4 | 
[V:1] e4f4 | 
[V:2] a6f2 | 
[V:3] z8 | 
[V:4] z2A4B2 | 
[V:5] A,4D,4 | 
[V:1] e8 | 
[V:2] g6a2 | 
[V:3] z4g4 | 
[V:4] c8 | 
[V:5] C,8 | 
[V:1] d8 | 
[V:2] b8 | 
[V:3] g8 | 
[V:4] B4G4 | 
[V:5] G,8 | 
[V:1] d8 | 
[V:2] a8- | 
[V:3] f8- | 
[V:4] d8 | 
[V:5] D,8 | 
[V:1] c4B4 | 
[V:2] a4g4 | 
[V:3] f4d4 | 
[V:4] A4B4 | 
[V:5] F,4G,4 | 
[V:1] A8 | 
[V:2] a4f4 | 
[V:3] f8 | 
[V:4] c8 | 
[V:5] F,8 | 
[V:1] B8 | 
[V:2] f8 | 
[V:3] d8 | 
[V:4] B6AG | 
[V:5] B,,6C,2 | 
[V:1] A8 | 
[V:2] f8 | 
[V:3] d4d4 | 
[V:4] F3GA4 | 
[V:5] D,8 | 
[V:1] G8 | 
[V:2] g4g4 | 
[V:3] G4B4 | 
[V:4] B3cd4 | 
[V:5] z4G,4 | 
[V:1] A4B4 | 
[V:2] c2f2d3e | 
[V:3] c2d4cB | 
[V:4] A4z2G2 | 
[V:5] F,2D,2G,4 | 
[V:1] A2G2c3d | 
[V:2] f2d2a4 | 
[V:3] c2B2A2c2- | 
[V:4] A2B2c2F2 | 
[V:5] F,2G,2F,2E,D, | 
[V:1] e2d3cBA | 
[V:2] z2d2f2d2 | 
[V:3] c2d2B2f2 | 
[V:4] G2B3AF2 | 
[V:5] C,2B,,3C,D,2 | 
[V:1] cBAGF2B2 | 
[V:2] g2f4d2 | 
[V:3] e2c2d3B | 
[V:4] G2A4G2 | 
[V:5] C,2F,2D,2G,2 | 
[V:1] A2G4^F2 | 
[V:2] fedcd4- | 
[V:3] c2G2A4 | 
[V:4] z4z2d2 | 
[V:5] F,2E,2D,4 | 
[V:1] G8- | 
[V:2] d2B2B4 | 
[V:3] G8- | 
[V:4] B2_e2d4 | 
[V:5] G,8- | 
[V:1] G8 |]  
[V:2] d8 |]  
[V:3] G8 |]  
[V:4] =B8 |]  
[V:5] G,8 |]  



